Improvs/dist/images/ryan_template/step4.svg

<svg width="24" height="24" viewBox="0 0 24 24" fill="none" xmlns="http://www.w3.org/2000/svg">
<path d="M12 15.5C14.21 15.5 16 13.71 16 11.5V6C16 3.79 14.21 2 12 2C9.79 2 8 3.79 8 6V11.5C8 13.71 9.79 15.5 12 15.5Z" stroke="#00091D" stroke-width="1.5" stroke-linecap="round" stroke-linejoin="round"/>
<path d="M4.3501 9.65002V11.35C4.3501 15.57 7.7801 19 12.0001 19C16.2201 19 19.6501 15.57 19.6501 11.35V9.65002" stroke="#00091D" stroke-width="1.5" stroke-linecap="round" stroke-linejoin="round"/>
<path d="M10.6099 6.43C11.5099 6.1 12.4899 6.1 13.3899 6.43" stroke="#00091D" stroke-width="1.5" stroke-linecap="round" stroke-linejoin="round"/>
<path d="M11.2002 8.55001C11.7302 8.41001 12.2802 8.41001 12.8102 8.55001" stroke="#00091D" stroke-width="1.5" stroke-linecap="round" stroke-linejoin="round"/>
<path d="M12 19V22" stroke="#00091D" stroke-width="1.5" stroke-linecap="round" stroke-linejoin="round"/>
</svg>

<svg width="24" height="24" fill="none" xmlns="http://www.w3.org/2000/svg"><path d="M12 15.5c2.21 0 4-1.79 4-4V6c0-2.21-1.79-4-4-4S8 3.79 8 6v5.5c0 2.21 1.79 4 4 4z" stroke="#00091D" stroke-width="1.5" stroke-linecap="round" stroke-linejoin="round"/><path d="M4.35 9.65v1.7C4.35 15.57 7.78 19 12 19c4.22 0 7.65-3.43 7.65-7.65v-1.7m-9.04-3.22c.9-.33 1.88-.33 2.78 0M11.2 8.55c.53-.14 1.08-.14 1.61 0M12 19v3" stroke="#00091D" stroke-width="1.5" stroke-linecap="round" stroke-linejoin="round"/></svg>
